!!!COM: Palestrina, Giovanni Perluigi da
!!!OPR: Missa Aspice Domine
!!!OMD: Sanctus
!!!OTL: Pleni
**kern	**kern	**kern
*Itenor	*Icalto	*Icant
!Tenor	!Altus	!Cantus
*clefGv2	*clefG2	*clefG2
*k[]	*k[]	*k[]
*D:dor	*D:dor	*D:dor
*M4/2	*M4/2	*M4/2
=41	=41	=41
0r	1g	0r
.	2a	.
.	2f	.
=42	=42	=42
0r	1b-	1dd
.	1a	2ee
.	.	2cc
=43	=43	=43
0r	4d	1ff
.	4e	.
.	4f	.
.	4g	.
.	4a	1ee
.	4g	.
.	4a	.
.	4b	.
=44	=44	=44
0r	1.cc	4a
.	.	4b
.	.	4cc
.	.	4dd
.	.	4ee
.	.	4ff
.	2b-	[2gg
=45	=45	=45
1d	1a	2gg]
.	.	2ff
2e	2g	1ee
2c	[2cc	.
=46	=46	=46
1f	4cc]	1a
.	4b	.
.	1a	.
1e	.	1b
.	2g#	.
=47	=47	=47
4A	1a	1.cc
4B	.	.
4c	.	.
4d	.	.
4e	1r	.
4d	.	.
4e	.	4b
4f#	.	4a
=48	=48	=48
2.g	2r	1b
.	2g	.
4e	.	.
4f	2a	1a
4g	.	.
[2a	2f	.
=49	=49	=49
4a]	1b-	1dd
4g	.	.
1g	.	.
.	1a	1r
4f	.	.
4e	.	.
=50	=50	=50
2f	4d	0r
.	4e	.
4d	4f	.
4e	4g	.
4f	4a	.
4g	4b	.
2a	[2cc	.
=51	=51	=51
1g	2cc]	1dd
.	2b	.
1c	4cc	2ee
.	4b	.
.	4a	2cc
.	4g	.
=52	=52	=52
2r	1a	1ff
2d	.	.
2e	1g	1ee
2c	.	.
=53	=53	=53
1f	2r	4a
.	.	4b
.	2a	4cc
.	.	4dd
1e	2b	4ee
.	.	4ff#
.	2g	4gg
.	.	4ee
=54	=54	=54
4A	1cc	2ff
4B	.	.
4c	.	1ee
4d	.	.
4e	1b	.
4f#	.	.
[2g	.	4dd
.	.	4cc
=55	=55	=55
4g]	4e	2.b
4f	4f	.
2e	4g	.
.	4a	4cc
2d	4b	2dd
.	8a	.
.	8b	.
2c	2cc	2ee
=56	=56	=56
2G	2b	2dd
2A	1a	2cc
1e	.	1b
.	2g#	.
=57	=57	=57
2r	1a	0a
2f	.	.
2d	2r	.
[2f	2cc	.
=58	=58	=58
2f]	2a	0r
4e	1cc	.
4d	.	.
2c	.	.
2d	4b	.
.	4a	.
=59	=59	=59
2e	2g	2r
2.d	2a	2ff
.	4b-	2dd
8c	4a	.
8B-	.	.
2A	[2a	[2ff
=60	=60	=60
1B-	2a]	2ff]
.	2g	4ee
.	.	4dd
[1A	2a	2cc
.	2cc	2a
=61	=61	=61
1A]	2a	2.cc
.	2.cc	.
.	.	4dd
2r	.	2ee
.	4b	.
2f	4a	[2ff
.	4g	.
=62	=62	=62
2d	2f	2ff]
2e	2g	2.ee
2f	2a	.
.	.	4dd
2g	2b-	[2dd
=63	=63	=63
1e	1g	2dd]
.	.	2cc
4d	1a	1ff
4e	.	.
4f	.	.
4g	.	.
=64	=64	=64
0a	2r	0ee
.	2cc	.
.	2a	.
.	[2cc	.
=65	=65	=65
0e	2cc]	2r
.	4b	2gg
.	4a	.
.	2g	2ee
.	2e	[2gg
=66	=66	=66
0r	2g	2gg]
.	2a	4ff
.	.	4ee
.	2b	2dd
.	[2cc	2ee
=67	=67	=67
1f	4cc]	0a
.	4b-	.
.	4a	.
.	4g	.
2d	4f	.
.	4e	.
[2f	2d	.
=68	=68	=68
2f]	1.a	1r
4e	.	.
4d	.	.
2c	.	2r
2d	2a	2ff
=69	=69	=69
2G	2b-	2dd
2A	1a	1ff
1B-	.	.
.	2g	4ee
.	.	4dd
=70	=70	=70
0A	2a	2cc
.	2cc	2a
.	2a	4cc
.	.	4dd
.	[2cc	4ee
.	.	4ff
=71	=71	=71
2r	4cc]	2gg
.	8b-	.
.	8a	.
2c	2g	2ee
2A	2.a	2ff
2c	.	[2ee
.	4g	.
=72	=72	=72
2d	2f	4ee]
.	.	4dd
2G	2g	1dd
1A	1e	.
.	.	2cc#
=73	=73	=73
2r	1d	0dd
2B-	.	.
2G	1b-	.
[2B-	.	.
=74	=74	=74
4B-]	2g	1b-
4A	.	.
1G	1b-	.
.	.	2g
2F#	2a	2a
=75	=75	=75
0G	2g	0b-
.	2d	.
.	1g	.
=76	=76	=76
[0d	[0f#	[0a
=77	=77	=77
0d]	0f#]	0a]
*-	*-	*-
!!!CDT: 1525/^1526/-1594/2/2
!!!OCY: Italia
!!!AGN: Mass (Parody)
!!!AST: renaissance, vocal
!!!ASW: Motet (Jacquet)
!!!PWK: Masses, Book 2
!!!RNB: Cadence finals: A
!!!YOR: Le Opere Complete, v. 4, p. 91
!!!YOO: Rome, Italy: Fratelli Scalera
!!!END: 1992//
!!!EED: John Miller
!!!YEC: Copyright 2000, John Miller
!!!YEN: United States of America
!!!YEM: Rights to all derivative electronic formats reserved.
!!!YEM: Refer to licensing agreement for further details.
!!!YEM: This file must be accompanied by the licensing agreement.
!!!YEM: A copy of the licensing agreement may be found at http://www.music-cog.ohio-state.edu/HumdrumDatabases/Palestrina/license.txt
!!!EMD: converted to Humdrum by Bret Aarden
